resources/svg/contacts-fill.svg

<svg fill="currentColor" viewBox="0 0 24 24" xmlns="http://www.w3.org/2000/svg"><path d="M2 22C2 17.5817 5.58172 14 10 14C14.4183 14 18 17.5817 18 22H2ZM10 13C6.685 13 4 10.315 4 7C4 3.685 6.685 1 10 1C13.315 1 16 3.685 16 7C16 10.315 13.315 13 10 13ZM20 17H24V19H20V17ZM17 12H24V14H17V12ZM19 7H24V9H19V7Z"/></svg>

<svg xmlns="http://www.w3.org/2000/svg" viewBox="0 0 24 24" fill="currentColor">
    <g>
        <path fill="none" d="M0 0h24v24H0z"/>
        <path d="M2 22a8 8 0 1 1 16 0H2zm8-9c-3.315 0-6-2.685-6-6s2.685-6 6-6 6 2.685 6 6-2.685 6-6 6zm10 4h4v2h-4v-2zm-3-5h7v2h-7v-2zm2-5h5v2h-5V7z"/>
    </g>
</svg>
